config/curves/lightroomXMP/DiVERE_Kodak_2383_SDR.xmp
<x:xmpmeta xmlns:x="adobe:ns:meta/" x:xmptk="Adobe XMP Core 7.0-c000 1.000000, 0000/00/00-00:00:00        ">
 <rdf:RDF xmlns:rdf="http://www.w3.org/1999/02/22-rdf-syntax-ns#">
  <rdf:Description rdf:about=""
    xmlns:crs="http://ns.adobe.com/camera-raw-settings/1.0/"
   crs:PresetType="Normal"
   crs:Cluster=""
   crs:UUID="5B153BDB465348CE90758FC116913654"
   crs:SupportsAmount2="True"
   crs:SupportsAmount="True"
   crs:SupportsColor="True"
   crs:SupportsMonochrome="True"
   crs:SupportsHighDynamicRange="True"
   crs:SupportsNormalDynamicRange="True"
   crs:SupportsSceneReferred="True"
   crs:SupportsOutputReferred="True"
   crs:RequiresRGBTables="False"
   crs:CameraModelRestriction=""
   crs:Copyright=""
   crs:ContactInfo=""
   crs:Version="17.2"
   crs:ProcessVersion="15.4"
   crs:ParametricShadows="0"
   crs:ParametricDarks="0"
   crs:ParametricLights="0"
   crs:ParametricHighlights="0"
   crs:ParametricShadowSplit="25"
   crs:ParametricMidtoneSplit="50"
   crs:ParametricHighlightSplit="75"
   crs:ToneCurveName2012="Custom"
   crs:HDREditMode="0"
   crs:HasSettings="True">
   <crs:Name>
    <rdf:Alt>
     <rdf:li xml:lang="x-default">DiVERE Kodak 2383 SDR</rdf:li>
    </rdf:Alt>
   </crs:Name>
   <crs:ShortName>
    <rdf:Alt>
     <rdf:li xml:lang="x-default"/>
    </rdf:Alt>
   </crs:ShortName>
   <crs:SortName>
    <rdf:Alt>
     <rdf:li xml:lang="x-default"/>
    </rdf:Alt>
   </crs:SortName>
   <crs:Group>
    <rdf:Alt>
     <rdf:li xml:lang="x-default">DiVERE Density Curves</rdf:li>
    </rdf:Alt>
   </crs:Group>
   <crs:Description>
    <rdf:Alt>
     <rdf:li xml:lang="x-default"/>
    </rdf:Alt>
   </crs:Description>
    <crs:ToneCurvePV2012>
     <rdf:Seq>
      <rdf:li>0, 0</rdf:li>
      <rdf:li>255, 255</rdf:li>
     </rdf:Seq>
    </crs:ToneCurvePV2012>
    <crs:ToneCurvePV2012Red>
     <rdf:Seq>
      <rdf:li>0, 4</rdf:li>
      <rdf:li>7, 4</rdf:li>
      <rdf:li>9, 4</rdf:li>
      <rdf:li>12, 4</rdf:li>
      <rdf:li>15, 6</rdf:li>
      <rdf:li>17, 9</rdf:li>
      <rdf:li>20, 16</rdf:li>
      <rdf:li>23, 26</rdf:li>
      <rdf:li>26, 42</rdf:li>
      <rdf:li>28, 66</rdf:li>
      <rdf:li>32, 102</rdf:li>
      <rdf:li>35, 133</rdf:li>
      <rdf:li>50, 213</rdf:li>
      <rdf:li>58, 232</rdf:li>
      <rdf:li>69, 244</rdf:li>
      <rdf:li>81, 250</rdf:li>
      <rdf:li>95, 253</rdf:li>
      <rdf:li>113, 254</rdf:li>
      <rdf:li>132, 255</rdf:li>
      <rdf:li>255, 255</rdf:li>
     </rdf:Seq>
    </crs:ToneCurvePV2012Red>
    <crs:ToneCurvePV2012Green>
     <rdf:Seq>
      <rdf:li>0, 4</rdf:li>
      <rdf:li>8, 4</rdf:li>
      <rdf:li>11, 4</rdf:li>
      <rdf:li>16, 5</rdf:li>
      <rdf:li>19, 5</rdf:li>
      <rdf:li>21, 7</rdf:li>
      <rdf:li>25, 11</rdf:li>
      <rdf:li>30, 20</rdf:li>
      <rdf:li>32, 29</rdf:li>
      <rdf:li>35, 41</rdf:li>
      <rdf:li>41, 75</rdf:li>
      <rdf:li>49, 121</rdf:li>
      <rdf:li>57, 165</rdf:li>
      <rdf:li>68, 204</rdf:li>
      <rdf:li>80, 228</rdf:li>
      <rdf:li>94, 241</rdf:li>
      <rdf:li>111, 247</rdf:li>
      <rdf:li>131, 249</rdf:li>
      <rdf:li>154, 252</rdf:li>
      <rdf:li>255, 255</rdf:li>
     </rdf:Seq>
    </crs:ToneCurvePV2012Green>
    <crs:ToneCurvePV2012Blue>
     <rdf:Seq>
      <rdf:li>0, 4</rdf:li>
      <rdf:li>11, 4</rdf:li>
      <rdf:li>14, 4</rdf:li>
      <rdf:li>16, 4</rdf:li>
      <rdf:li>19, 4</rdf:li>
      <rdf:li>21, 4</rdf:li>
      <rdf:li>24, 5</rdf:li>
      <rdf:li>27, 6</rdf:li>
      <rdf:li>30, 6</rdf:li>
      <rdf:li>32, 8</rdf:li>
      <rdf:li>35, 10</rdf:li>
      <rdf:li>41, 19</rdf:li>
      <rdf:li>67, 128</rdf:li>
      <rdf:li>79, 169</rdf:li>
      <rdf:li>93, 204</rdf:li>
      <rdf:li>110, 228</rdf:li>
      <rdf:li>130, 241</rdf:li>
      <rdf:li>153, 248</rdf:li>
      <rdf:li>250, 255</rdf:li>
      <rdf:li>255, 255</rdf:li>
     </rdf:Seq>
    </crs:ToneCurvePV2012Blue>
  </rdf:Description>
 </rdf:RDF>
</x:xmpmeta>
