config/curves/lightroomXMP/DiVERE_Kodak_Portra_Endura_HDR_BC.xmp
<x:xmpmeta xmlns:x="adobe:ns:meta/" x:xmptk="Adobe XMP Core 7.0-c000 1.000000, 0000/00/00-00:00:00        ">
 <rdf:RDF xmlns:rdf="http://www.w3.org/1999/02/22-rdf-syntax-ns#">
  <rdf:Description rdf:about=""
    xmlns:crs="http://ns.adobe.com/camera-raw-settings/1.0/"
   crs:PresetType="Normal"
   crs:Cluster=""
   crs:UUID="DD6D2A048E50432C9087D0457C35A0D1"
   crs:SupportsAmount2="True"
   crs:SupportsAmount="True"
   crs:SupportsColor="True"
   crs:SupportsMonochrome="True"
   crs:SupportsHighDynamicRange="True"
   crs:SupportsNormalDynamicRange="True"
   crs:SupportsSceneReferred="True"
   crs:SupportsOutputReferred="True"
   crs:RequiresRGBTables="False"
   crs:CameraModelRestriction=""
   crs:Copyright=""
   crs:ContactInfo=""
   crs:Version="17.2"
   crs:ProcessVersion="15.4"
   crs:ParametricShadows="0"
   crs:ParametricDarks="0"
   crs:ParametricLights="0"
   crs:ParametricHighlights="0"
   crs:ParametricShadowSplit="25"
   crs:ParametricMidtoneSplit="50"
   crs:ParametricHighlightSplit="75"
   crs:ToneCurveName2012="Custom"
   crs:HDREditMode="1"
   crs:HDRMaxValue="+4.00"
   crs:SDRBrightness="0"
   crs:SDRContrast="0"
   crs:SDRClarity="0"
   crs:SDRHighlights="0"
   crs:SDRShadows="0"
   crs:SDRWhites="0"
   crs:SDRBlend="0"
   crs:HasSettings="True">
   <crs:Name>
    <rdf:Alt>
     <rdf:li xml:lang="x-default">DiVERE Kodak Portra Endura HDR BC</rdf:li>
    </rdf:Alt>
   </crs:Name>
   <crs:ShortName>
    <rdf:Alt>
     <rdf:li xml:lang="x-default"/>
    </rdf:Alt>
   </crs:ShortName>
   <crs:SortName>
    <rdf:Alt>
     <rdf:li xml:lang="x-default"/>
    </rdf:Alt>
   </crs:SortName>
   <crs:Group>
    <rdf:Alt>
     <rdf:li xml:lang="x-default">DiVERE Density Curves HDR</rdf:li>
    </rdf:Alt>
   </crs:Group>
   <crs:Description>
    <rdf:Alt>
     <rdf:li xml:lang="x-default"/>
    </rdf:Alt>
   </crs:Description>
    <crs:ToneCurvePV2012>
     <rdf:Seq>
      <rdf:li>0, 0</rdf:li>
      <rdf:li>255, 255</rdf:li>
     </rdf:Seq>
    </crs:ToneCurvePV2012>
    <crs:ToneCurvePV2012Red>
     <rdf:Seq>
      <rdf:li>0, 0</rdf:li>
      <rdf:li>12, 0</rdf:li>
      <rdf:li>15, 9</rdf:li>
      <rdf:li>20, 12</rdf:li>
      <rdf:li>22, 15</rdf:li>
      <rdf:li>25, 19</rdf:li>
      <rdf:li>28, 21</rdf:li>
      <rdf:li>32, 28</rdf:li>
      <rdf:li>34, 35</rdf:li>
      <rdf:li>37, 44</rdf:li>
      <rdf:li>45, 83</rdf:li>
      <rdf:li>61, 212</rdf:li>
      <rdf:li>72, 285</rdf:li>
      <rdf:li>84, 342</rdf:li>
      <rdf:li>99, 376</rdf:li>
      <rdf:li>116, 392</rdf:li>
      <rdf:li>135, 397</rdf:li>
      <rdf:li>159, 399</rdf:li>
      <rdf:li>255, 400</rdf:li>
      <rdf:li>500, 400</rdf:li>
     </rdf:Seq>
    </crs:ToneCurvePV2012Red>
    <crs:ToneCurvePV2012Green>
     <rdf:Seq>
      <rdf:li>0, 0</rdf:li>
      <rdf:li>12, 0</rdf:li>
      <rdf:li>15, 9</rdf:li>
      <rdf:li>30, 28</rdf:li>
      <rdf:li>32, 34</rdf:li>
      <rdf:li>35, 42</rdf:li>
      <rdf:li>38, 51</rdf:li>
      <rdf:li>40, 62</rdf:li>
      <rdf:li>51, 137</rdf:li>
      <rdf:li>70, 283</rdf:li>
      <rdf:li>82, 339</rdf:li>
      <rdf:li>96, 373</rdf:li>
      <rdf:li>112, 391</rdf:li>
      <rdf:li>131, 397</rdf:li>
      <rdf:li>154, 399</rdf:li>
      <rdf:li>180, 400</rdf:li>
      <rdf:li>211, 399</rdf:li>
      <rdf:li>246, 400</rdf:li>
      <rdf:li>255, 400</rdf:li>
      <rdf:li>500, 400</rdf:li>
     </rdf:Seq>
    </crs:ToneCurvePV2012Green>
    <crs:ToneCurvePV2012Blue>
     <rdf:Seq>
      <rdf:li>0, 24</rdf:li>
      <rdf:li>12, 24</rdf:li>
      <rdf:li>15, 24</rdf:li>
      <rdf:li>31, 33</rdf:li>
      <rdf:li>33, 38</rdf:li>
      <rdf:li>37, 48</rdf:li>
      <rdf:li>40, 61</rdf:li>
      <rdf:li>44, 82</rdf:li>
      <rdf:li>51, 142</rdf:li>
      <rdf:li>60, 218</rdf:li>
      <rdf:li>70, 290</rdf:li>
      <rdf:li>82, 343</rdf:li>
      <rdf:li>96, 374</rdf:li>
      <rdf:li>112, 391</rdf:li>
      <rdf:li>131, 397</rdf:li>
      <rdf:li>154, 399</rdf:li>
      <rdf:li>180, 400</rdf:li>
      <rdf:li>210, 399</rdf:li>
      <rdf:li>255, 400</rdf:li>
      <rdf:li>500, 400</rdf:li>
     </rdf:Seq>
    </crs:ToneCurvePV2012Blue>
  </rdf:Description>
 </rdf:RDF>
</x:xmpmeta>
