config/curves/lightroomXMP/DiVERE_Ilford_MGFB_3_SDR.xmp
<x:xmpmeta xmlns:x="adobe:ns:meta/" x:xmptk="Adobe XMP Core 7.0-c000 1.000000, 0000/00/00-00:00:00        ">
 <rdf:RDF xmlns:rdf="http://www.w3.org/1999/02/22-rdf-syntax-ns#">
  <rdf:Description rdf:about=""
    xmlns:crs="http://ns.adobe.com/camera-raw-settings/1.0/"
   crs:PresetType="Normal"
   crs:Cluster=""
   crs:UUID="6B04BC0C6EA44CB786623E4BC11D7BE8"
   crs:SupportsAmount2="True"
   crs:SupportsAmount="True"
   crs:SupportsColor="True"
   crs:SupportsMonochrome="True"
   crs:SupportsHighDynamicRange="True"
   crs:SupportsNormalDynamicRange="True"
   crs:SupportsSceneReferred="True"
   crs:SupportsOutputReferred="True"
   crs:RequiresRGBTables="False"
   crs:CameraModelRestriction=""
   crs:Copyright=""
   crs:ContactInfo=""
   crs:Version="17.2"
   crs:ProcessVersion="15.4"
   crs:ParametricShadows="0"
   crs:ParametricDarks="0"
   crs:ParametricLights="0"
   crs:ParametricHighlights="0"
   crs:ParametricShadowSplit="25"
   crs:ParametricMidtoneSplit="50"
   crs:ParametricHighlightSplit="75"
   crs:ToneCurveName2012="Custom"
   crs:HDREditMode="0"
   crs:HasSettings="True">
   <crs:Name>
    <rdf:Alt>
     <rdf:li xml:lang="x-default">DiVERE Ilford MGFB 3 SDR</rdf:li>
    </rdf:Alt>
   </crs:Name>
   <crs:ShortName>
    <rdf:Alt>
     <rdf:li xml:lang="x-default"/>
    </rdf:Alt>
   </crs:ShortName>
   <crs:SortName>
    <rdf:Alt>
     <rdf:li xml:lang="x-default"/>
    </rdf:Alt>
   </crs:SortName>
   <crs:Group>
    <rdf:Alt>
     <rdf:li xml:lang="x-default">DiVERE Density Curves</rdf:li>
    </rdf:Alt>
   </crs:Group>
   <crs:Description>
    <rdf:Alt>
     <rdf:li xml:lang="x-default"/>
    </rdf:Alt>
   </crs:Description>
    <crs:ToneCurvePV2012>
     <rdf:Seq>
      <rdf:li>0, 0</rdf:li>
      <rdf:li>255, 255</rdf:li>
     </rdf:Seq>
    </crs:ToneCurvePV2012>
    <crs:ToneCurvePV2012Red>
     <rdf:Seq>
      <rdf:li>0, 28</rdf:li>
      <rdf:li>8, 28</rdf:li>
      <rdf:li>12, 29</rdf:li>
      <rdf:li>14, 29</rdf:li>
      <rdf:li>17, 29</rdf:li>
      <rdf:li>20, 29</rdf:li>
      <rdf:li>22, 29</rdf:li>
      <rdf:li>25, 30</rdf:li>
      <rdf:li>28, 30</rdf:li>
      <rdf:li>30, 30</rdf:li>
      <rdf:li>33, 33</rdf:li>
      <rdf:li>41, 46</rdf:li>
      <rdf:li>61, 160</rdf:li>
      <rdf:li>78, 226</rdf:li>
      <rdf:li>84, 239</rdf:li>
      <rdf:li>90, 246</rdf:li>
      <rdf:li>95, 250</rdf:li>
      <rdf:li>99, 255</rdf:li>
      <rdf:li>111, 255</rdf:li>
      <rdf:li>255, 249</rdf:li>
     </rdf:Seq>
    </crs:ToneCurvePV2012Red>
    <crs:ToneCurvePV2012Green>
     <rdf:Seq>
      <rdf:li>0, 28</rdf:li>
      <rdf:li>8, 28</rdf:li>
      <rdf:li>12, 29</rdf:li>
      <rdf:li>14, 29</rdf:li>
      <rdf:li>17, 29</rdf:li>
      <rdf:li>20, 29</rdf:li>
      <rdf:li>22, 29</rdf:li>
      <rdf:li>25, 30</rdf:li>
      <rdf:li>28, 30</rdf:li>
      <rdf:li>30, 30</rdf:li>
      <rdf:li>33, 33</rdf:li>
      <rdf:li>41, 46</rdf:li>
      <rdf:li>61, 160</rdf:li>
      <rdf:li>78, 226</rdf:li>
      <rdf:li>84, 239</rdf:li>
      <rdf:li>90, 246</rdf:li>
      <rdf:li>95, 250</rdf:li>
      <rdf:li>99, 255</rdf:li>
      <rdf:li>111, 255</rdf:li>
      <rdf:li>255, 249</rdf:li>
     </rdf:Seq>
    </crs:ToneCurvePV2012Green>
    <crs:ToneCurvePV2012Blue>
     <rdf:Seq>
      <rdf:li>0, 28</rdf:li>
      <rdf:li>8, 28</rdf:li>
      <rdf:li>12, 29</rdf:li>
      <rdf:li>14, 29</rdf:li>
      <rdf:li>17, 29</rdf:li>
      <rdf:li>20, 29</rdf:li>
      <rdf:li>22, 29</rdf:li>
      <rdf:li>25, 30</rdf:li>
      <rdf:li>28, 30</rdf:li>
      <rdf:li>30, 30</rdf:li>
      <rdf:li>33, 33</rdf:li>
      <rdf:li>41, 46</rdf:li>
      <rdf:li>61, 160</rdf:li>
      <rdf:li>78, 226</rdf:li>
      <rdf:li>84, 239</rdf:li>
      <rdf:li>90, 246</rdf:li>
      <rdf:li>95, 250</rdf:li>
      <rdf:li>99, 255</rdf:li>
      <rdf:li>111, 255</rdf:li>
      <rdf:li>255, 249</rdf:li>
     </rdf:Seq>
    </crs:ToneCurvePV2012Blue>
  </rdf:Description>
 </rdf:RDF>
</x:xmpmeta>
