config/curves/lightroomXMP/DiVERE_Ilford_MGFB_00_SDR.xmp
<x:xmpmeta xmlns:x="adobe:ns:meta/" x:xmptk="Adobe XMP Core 7.0-c000 1.000000, 0000/00/00-00:00:00        ">
 <rdf:RDF xmlns:rdf="http://www.w3.org/1999/02/22-rdf-syntax-ns#">
  <rdf:Description rdf:about=""
    xmlns:crs="http://ns.adobe.com/camera-raw-settings/1.0/"
   crs:PresetType="Normal"
   crs:Cluster=""
   crs:UUID="1E7C5AD4BF3B45CEBDBFB9EE6159F338"
   crs:SupportsAmount2="True"
   crs:SupportsAmount="True"
   crs:SupportsColor="True"
   crs:SupportsMonochrome="True"
   crs:SupportsHighDynamicRange="True"
   crs:SupportsNormalDynamicRange="True"
   crs:SupportsSceneReferred="True"
   crs:SupportsOutputReferred="True"
   crs:RequiresRGBTables="False"
   crs:CameraModelRestriction=""
   crs:Copyright=""
   crs:ContactInfo=""
   crs:Version="17.2"
   crs:ProcessVersion="15.4"
   crs:ParametricShadows="0"
   crs:ParametricDarks="0"
   crs:ParametricLights="0"
   crs:ParametricHighlights="0"
   crs:ParametricShadowSplit="25"
   crs:ParametricMidtoneSplit="50"
   crs:ParametricHighlightSplit="75"
   crs:ToneCurveName2012="Custom"
   crs:HDREditMode="0"
   crs:HasSettings="True">
   <crs:Name>
    <rdf:Alt>
     <rdf:li xml:lang="x-default">DiVERE Ilford MGFB 00 SDR</rdf:li>
    </rdf:Alt>
   </crs:Name>
   <crs:ShortName>
    <rdf:Alt>
     <rdf:li xml:lang="x-default"/>
    </rdf:Alt>
   </crs:ShortName>
   <crs:SortName>
    <rdf:Alt>
     <rdf:li xml:lang="x-default"/>
    </rdf:Alt>
   </crs:SortName>
   <crs:Group>
    <rdf:Alt>
     <rdf:li xml:lang="x-default">DiVERE Density Curves</rdf:li>
    </rdf:Alt>
   </crs:Group>
   <crs:Description>
    <rdf:Alt>
     <rdf:li xml:lang="x-default"/>
    </rdf:Alt>
   </crs:Description>
    <crs:ToneCurvePV2012>
     <rdf:Seq>
      <rdf:li>0, 0</rdf:li>
      <rdf:li>255, 255</rdf:li>
     </rdf:Seq>
    </crs:ToneCurvePV2012>
    <crs:ToneCurvePV2012Red>
     <rdf:Seq>
      <rdf:li>0, 29</rdf:li>
      <rdf:li>11, 31</rdf:li>
      <rdf:li>20, 47</rdf:li>
      <rdf:li>26, 61</rdf:li>
      <rdf:li>29, 68</rdf:li>
      <rdf:li>32, 76</rdf:li>
      <rdf:li>40, 98</rdf:li>
      <rdf:li>49, 127</rdf:li>
      <rdf:li>67, 174</rdf:li>
      <rdf:li>75, 198</rdf:li>
      <rdf:li>81, 216</rdf:li>
      <rdf:li>87, 227</rdf:li>
      <rdf:li>92, 234</rdf:li>
      <rdf:li>97, 239</rdf:li>
      <rdf:li>100, 244</rdf:li>
      <rdf:li>103, 246</rdf:li>
      <rdf:li>106, 245</rdf:li>
      <rdf:li>109, 248</rdf:li>
      <rdf:li>112, 249</rdf:li>
      <rdf:li>255, 249</rdf:li>
     </rdf:Seq>
    </crs:ToneCurvePV2012Red>
    <crs:ToneCurvePV2012Green>
     <rdf:Seq>
      <rdf:li>0, 29</rdf:li>
      <rdf:li>11, 31</rdf:li>
      <rdf:li>20, 47</rdf:li>
      <rdf:li>26, 61</rdf:li>
      <rdf:li>29, 68</rdf:li>
      <rdf:li>32, 76</rdf:li>
      <rdf:li>40, 98</rdf:li>
      <rdf:li>49, 127</rdf:li>
      <rdf:li>67, 174</rdf:li>
      <rdf:li>75, 198</rdf:li>
      <rdf:li>81, 216</rdf:li>
      <rdf:li>87, 227</rdf:li>
      <rdf:li>92, 234</rdf:li>
      <rdf:li>97, 239</rdf:li>
      <rdf:li>100, 244</rdf:li>
      <rdf:li>103, 246</rdf:li>
      <rdf:li>106, 245</rdf:li>
      <rdf:li>109, 248</rdf:li>
      <rdf:li>112, 249</rdf:li>
      <rdf:li>255, 249</rdf:li>
     </rdf:Seq>
    </crs:ToneCurvePV2012Green>
    <crs:ToneCurvePV2012Blue>
     <rdf:Seq>
      <rdf:li>0, 29</rdf:li>
      <rdf:li>11, 31</rdf:li>
      <rdf:li>20, 47</rdf:li>
      <rdf:li>26, 61</rdf:li>
      <rdf:li>29, 68</rdf:li>
      <rdf:li>32, 76</rdf:li>
      <rdf:li>40, 98</rdf:li>
      <rdf:li>49, 127</rdf:li>
      <rdf:li>67, 174</rdf:li>
      <rdf:li>75, 198</rdf:li>
      <rdf:li>81, 216</rdf:li>
      <rdf:li>87, 227</rdf:li>
      <rdf:li>92, 234</rdf:li>
      <rdf:li>97, 239</rdf:li>
      <rdf:li>100, 244</rdf:li>
      <rdf:li>103, 246</rdf:li>
      <rdf:li>106, 245</rdf:li>
      <rdf:li>109, 248</rdf:li>
      <rdf:li>112, 249</rdf:li>
      <rdf:li>255, 249</rdf:li>
     </rdf:Seq>
    </crs:ToneCurvePV2012Blue>
  </rdf:Description>
 </rdf:RDF>
</x:xmpmeta>
