config/curves/lightroomXMP/DiVERE_Ilford_MGFB_1_SDR_BC.xmp
<x:xmpmeta xmlns:x="adobe:ns:meta/" x:xmptk="Adobe XMP Core 7.0-c000 1.000000, 0000/00/00-00:00:00        ">
 <rdf:RDF xmlns:rdf="http://www.w3.org/1999/02/22-rdf-syntax-ns#">
  <rdf:Description rdf:about=""
    xmlns:crs="http://ns.adobe.com/camera-raw-settings/1.0/"
   crs:PresetType="Normal"
   crs:Cluster=""
   crs:UUID="BF637D8EAAFE455180DB3BC1B36A1FF0"
   crs:SupportsAmount2="True"
   crs:SupportsAmount="True"
   crs:SupportsColor="True"
   crs:SupportsMonochrome="True"
   crs:SupportsHighDynamicRange="True"
   crs:SupportsNormalDynamicRange="True"
   crs:SupportsSceneReferred="True"
   crs:SupportsOutputReferred="True"
   crs:RequiresRGBTables="False"
   crs:CameraModelRestriction=""
   crs:Copyright=""
   crs:ContactInfo=""
   crs:Version="17.2"
   crs:ProcessVersion="15.4"
   crs:ParametricShadows="0"
   crs:ParametricDarks="0"
   crs:ParametricLights="0"
   crs:ParametricHighlights="0"
   crs:ParametricShadowSplit="25"
   crs:ParametricMidtoneSplit="50"
   crs:ParametricHighlightSplit="75"
   crs:ToneCurveName2012="Custom"
   crs:HDREditMode="0"
   crs:HasSettings="True">
   <crs:Name>
    <rdf:Alt>
     <rdf:li xml:lang="x-default">DiVERE Ilford MGFB 1 SDR BC</rdf:li>
    </rdf:Alt>
   </crs:Name>
   <crs:ShortName>
    <rdf:Alt>
     <rdf:li xml:lang="x-default"/>
    </rdf:Alt>
   </crs:ShortName>
   <crs:SortName>
    <rdf:Alt>
     <rdf:li xml:lang="x-default"/>
    </rdf:Alt>
   </crs:SortName>
   <crs:Group>
    <rdf:Alt>
     <rdf:li xml:lang="x-default">DiVERE Density Curves</rdf:li>
    </rdf:Alt>
   </crs:Group>
   <crs:Description>
    <rdf:Alt>
     <rdf:li xml:lang="x-default"/>
    </rdf:Alt>
   </crs:Description>
    <crs:ToneCurvePV2012>
     <rdf:Seq>
      <rdf:li>0, 0</rdf:li>
      <rdf:li>255, 255</rdf:li>
     </rdf:Seq>
    </crs:ToneCurvePV2012>
    <crs:ToneCurvePV2012Red>
     <rdf:Seq>
      <rdf:li>0, 0</rdf:li>
      <rdf:li>8, 0</rdf:li>
      <rdf:li>11, 0</rdf:li>
      <rdf:li>26, 20</rdf:li>
      <rdf:li>29, 31</rdf:li>
      <rdf:li>32, 42</rdf:li>
      <rdf:li>34, 55</rdf:li>
      <rdf:li>38, 72</rdf:li>
      <rdf:li>50, 122</rdf:li>
      <rdf:li>55, 143</rdf:li>
      <rdf:li>61, 163</rdf:li>
      <rdf:li>67, 184</rdf:li>
      <rdf:li>72, 200</rdf:li>
      <rdf:li>76, 213</rdf:li>
      <rdf:li>81, 226</rdf:li>
      <rdf:li>84, 234</rdf:li>
      <rdf:li>88, 241</rdf:li>
      <rdf:li>91, 245</rdf:li>
      <rdf:li>94, 248</rdf:li>
      <rdf:li>255, 248</rdf:li>
     </rdf:Seq>
    </crs:ToneCurvePV2012Red>
    <crs:ToneCurvePV2012Green>
     <rdf:Seq>
      <rdf:li>0, 0</rdf:li>
      <rdf:li>8, 0</rdf:li>
      <rdf:li>11, 0</rdf:li>
      <rdf:li>26, 20</rdf:li>
      <rdf:li>29, 31</rdf:li>
      <rdf:li>32, 42</rdf:li>
      <rdf:li>34, 55</rdf:li>
      <rdf:li>38, 72</rdf:li>
      <rdf:li>50, 122</rdf:li>
      <rdf:li>55, 143</rdf:li>
      <rdf:li>61, 163</rdf:li>
      <rdf:li>67, 184</rdf:li>
      <rdf:li>72, 200</rdf:li>
      <rdf:li>76, 213</rdf:li>
      <rdf:li>81, 226</rdf:li>
      <rdf:li>84, 234</rdf:li>
      <rdf:li>88, 241</rdf:li>
      <rdf:li>91, 245</rdf:li>
      <rdf:li>94, 248</rdf:li>
      <rdf:li>255, 248</rdf:li>
     </rdf:Seq>
    </crs:ToneCurvePV2012Green>
    <crs:ToneCurvePV2012Blue>
     <rdf:Seq>
      <rdf:li>0, 0</rdf:li>
      <rdf:li>8, 0</rdf:li>
      <rdf:li>11, 0</rdf:li>
      <rdf:li>26, 20</rdf:li>
      <rdf:li>29, 31</rdf:li>
      <rdf:li>32, 42</rdf:li>
      <rdf:li>34, 55</rdf:li>
      <rdf:li>38, 72</rdf:li>
      <rdf:li>50, 122</rdf:li>
      <rdf:li>55, 143</rdf:li>
      <rdf:li>61, 163</rdf:li>
      <rdf:li>67, 184</rdf:li>
      <rdf:li>72, 200</rdf:li>
      <rdf:li>76, 213</rdf:li>
      <rdf:li>81, 226</rdf:li>
      <rdf:li>84, 234</rdf:li>
      <rdf:li>88, 241</rdf:li>
      <rdf:li>91, 245</rdf:li>
      <rdf:li>94, 248</rdf:li>
      <rdf:li>255, 248</rdf:li>
     </rdf:Seq>
    </crs:ToneCurvePV2012Blue>
  </rdf:Description>
 </rdf:RDF>
</x:xmpmeta>
